X: 1
T: Toss The Feathers
Z: JACKB
S: https://thesession.org/tunes/113#setting40798
R: reel
M: 4/4
L: 1/8
K: Edor
|:"Em"EBB2 dBB2|"Em"EBBA "D"FDFA|"Em"BE E2 B3d|"C"egfe "D"dBAF|
"Em"EBB2 dBB2|"Em"EBBA "D"FDFA|"Em"BE E2 B3d|"C"egfe "D"dBBA||
|:"Em"Beed e2 de|"D"fede "Bm"fe e2|"Em"febe febe|"D"fede "Bm"fe e2|
"Em"Beed e2 de|"D"fede fa a2|"G"b3f "D"a3f|"C"egfe "Bm"dBAF||

